src/assets/riot.svg

<svg width="24" height="24" viewBox="0 0 24 24" fill="none" xmlns="http://www.w3.org/2000/svg">
<path d="M12.6531 3.81836L2 8.39688L4.65437 17.7721L6.67454 17.5419L6.11908 11.6471L6.7824 11.3728L7.92784 17.3988L11.3804 17.0054L10.7667 10.499L11.4235 10.2277L12.6833 16.8572L16.1757 16.4588L15.5037 9.3268L16.1682 9.05253L17.5455 16.3027L20.998 15.9093V5.75828L12.6531 3.81836Z" fill="white"/>
<path d="M12.9033 18.0374L13.0791 18.9603L20.998 20.1855V17.1145L12.9076 18.0364L12.9033 18.0374Z" fill="white"/>
</svg>

<?xml version="1.0" encoding="UTF-8"?><svg width="24" height="24" viewBox="0 0 24 24" xmlns="http://www.w3.org/2000/svg"><path d="m12.653 3.8184-10.653 4.5785 2.6544 9.3752 2.0202-0.2302-0.55546-5.8948 0.66332-0.2743 1.1454 6.026 3.4526-0.3934-0.6137-6.5064 0.6568-0.2713 1.2598 6.6295 3.4924-0.3984-0.672-7.132 0.6645-0.27427 1.3773 7.2502 3.4525-0.3934v-10.151l-8.3449-1.9399z" fill="#fff"/><path d="m12.903 18.037 0.1758 0.9229 7.9189 1.2252v-3.071l-8.0904 0.9219-0.0043 1e-3z" fill="#fff"/></svg>
